app/assets/images/icons/active/expand-full-screen.svg

<?xml version="1.0" encoding="UTF-8" standalone="no"?>
<svg width="32px" height="232px" viewBox="0 0 32 232" version="1.1" xmlns="http://www.w3.org/2000/svg" xmlns:xlink="http://www.w3.org/1999/xlink" xmlns:sketch="http://www.bohemiancoding.com/sketch/ns">
    <title>expand-full-screen</title>
    <description>Created with Sketch (http://www.bohemiancoding.com/sketch)</description>
    <defs></defs>
    <g id="Functions" stroke="none" stroke-width="1" fill="none" fill-rule="evenodd" sketch:type="MSPage">
        <path d="M29.1555556,123 L2.84444444,123 C1.27431111,123 0,124.293259 0,125.887926 L0,146.110148 C0,147.706741 1.27431111,149 2.84444444,149 L29.1555556,149 C30.7256889,149 32,147.706741 32,146.110148 L32,125.887926 C32,124.293259 30.7256889,123 29.1555556,123 Z M2.84444444,125.887926 L29.1555556,125.887926 L29.1555556,146.05237 L2.84444444,146.05237 L2.84444444,125.887926 Z M18.9572741,138.485407 L23.2817778,134.094296 L23.2817778,136.968741 L25.3781333,136.968741 L25.3781333,130.406148 L18.9724444,130.406148 L18.9724444,132.536222 L21.6576,132.536222 L17.3776593,136.882074 L18.9572741,138.485407 Z M13.0275556,140.141704 L10.3442963,140.141704 L14.6223407,135.794889 L13.0427259,134.190593 L8.71822222,138.58363 L8.71822222,135.709185 L6.62186667,135.709185 L6.62186667,142.271778 L13.0275556,142.271778 L13.0275556,140.141704 Z M13.0275556,140.141704" id="expand-full-screen--lp-blue" fill="#206FAC" sketch:type="MSShapeGroup"></path>
        <path d="M29.1555556,83 L2.84444444,83 C1.27431111,83 0,84.2932593 0,85.8879259 L0,106.110148 C0,107.706741 1.27431111,109 2.84444444,109 L29.1555556,109 C30.7256889,109 32,107.706741 32,106.110148 L32,85.8879259 C32,84.2932593 30.7256889,83 29.1555556,83 Z M2.84444444,85.8879259 L29.1555556,85.8879259 L29.1555556,106.05237 L2.84444444,106.05237 L2.84444444,85.8879259 Z M18.9572741,98.4854074 L23.2817778,94.0942963 L23.2817778,96.9687407 L25.3781333,96.9687407 L25.3781333,90.4061481 L18.9724444,90.4061481 L18.9724444,92.5362222 L21.6576,92.5362222 L17.3776593,96.8820741 L18.9572741,98.4854074 Z M13.0275556,100.141704 L10.3442963,100.141704 L14.6223407,95.7948889 L13.0427259,94.1905926 L8.71822222,98.5836296 L8.71822222,95.7091852 L6.62186667,95.7091852 L6.62186667,102.271778 L13.0275556,102.271778 L13.0275556,100.141704 Z M13.0275556,100.141704" id="expand-full-screen--white" fill="#FFFFFF" sketch:type="MSShapeGroup"></path>
        <path d="M29.1555556,43 L2.84444444,43 C1.27431111,43 0,44.2932593 0,45.8879259 L0,66.1101481 C0,67.7067407 1.27431111,69 2.84444444,69 L29.1555556,69 C30.7256889,69 32,67.7067407 32,66.1101481 L32,45.8879259 C32,44.2932593 30.7256889,43 29.1555556,43 Z M2.84444444,45.8879259 L29.1555556,45.8879259 L29.1555556,66.0523704 L2.84444444,66.0523704 L2.84444444,45.8879259 Z M18.9572741,58.4854074 L23.2817778,54.0942963 L23.2817778,56.9687407 L25.3781333,56.9687407 L25.3781333,50.4061481 L18.9724444,50.4061481 L18.9724444,52.5362222 L21.6576,52.5362222 L17.3776593,56.8820741 L18.9572741,58.4854074 Z M13.0275556,60.1417037 L10.3442963,60.1417037 L14.6223407,55.7948889 L13.0427259,54.1905926 L8.71822222,58.5836296 L8.71822222,55.7091852 L6.62186667,55.7091852 L6.62186667,62.2717778 L13.0275556,62.2717778 L13.0275556,60.1417037 Z M13.0275556,60.1417037" id="expand-full-screen--body-grey" fill="#67737B" sketch:type="MSShapeGroup"></path>
        <path d="M29.1555556,3 L2.84444444,3 C1.27431111,3 0,4.29325926 0,5.88792593 L0,26.1101481 C0,27.7067407 1.27431111,29 2.84444444,29 L29.1555556,29 C30.7256889,29 32,27.7067407 32,26.1101481 L32,5.88792593 C32,4.29325926 30.7256889,3 29.1555556,3 Z M2.84444444,5.88792593 L29.1555556,5.88792593 L29.1555556,26.0523704 L2.84444444,26.0523704 L2.84444444,5.88792593 Z M18.9572741,18.4854074 L23.2817778,14.0942963 L23.2817778,16.9687407 L25.3781333,16.9687407 L25.3781333,10.4061481 L18.9724444,10.4061481 L18.9724444,12.5362222 L21.6576,12.5362222 L17.3776593,16.8820741 L18.9572741,18.4854074 Z M13.0275556,20.1417037 L10.3442963,20.1417037 L14.6223407,15.7948889 L13.0427259,14.1905926 L8.71822222,18.5836296 L8.71822222,15.7091852 L6.62186667,15.7091852 L6.62186667,22.2717778 L13.0275556,22.2717778 L13.0275556,20.1417037 Z M13.0275556,20.1417037" id="expand-full-screen--title-grey" fill="#3A434E" sketch:type="MSShapeGroup"></path>
    </g>
</svg>

<svg width="32" height="232" viewBox="0 0 32 232" xmlns="http://www.w3.org/2000/svg" xmlns:sketch="http://www.bohemiancoding.com/sketch/ns"><title>expand-full-screen</title><g sketch:type="MSPage" fill="none"><path d="M29.156 123h-26.311c-1.57 0-2.844 1.293-2.844 2.888v20.222c0 1.597 1.274 2.89 2.844 2.89h26.311c1.57 0 2.844-1.293 2.844-2.89v-20.222c0-1.595-1.274-2.888-2.844-2.888zm-26.311 2.888h26.311v20.164h-26.311v-20.164zm16.113 12.597l4.325-4.391v2.874h2.096v-6.563h-6.406v2.13h2.685l-4.28 4.346 1.58 1.603zm-5.93 1.656h-2.683l4.278-4.347-1.58-1.604-4.325 4.393v-2.874h-2.096v6.563h6.406v-2.13zm0 0" fill="#206FAC" sketch:type="MSShapeGroup"/><path d="M29.156 83h-26.311c-1.57 0-2.844 1.293-2.844 2.888v20.222c0 1.597 1.274 2.89 2.844 2.89h26.311c1.57 0 2.844-1.293 2.844-2.89v-20.222c0-1.595-1.274-2.888-2.844-2.888zm-26.311 2.888h26.311v20.164h-26.311v-20.164zm16.113 12.597l4.325-4.391v2.874h2.096v-6.563h-6.406v2.13h2.685l-4.28 4.346 1.58 1.603zm-5.93 1.656h-2.683l4.278-4.347-1.58-1.604-4.325 4.393v-2.874h-2.096v6.563h6.406v-2.13zm0 0" fill="#fff" sketch:type="MSShapeGroup"/><path d="M29.156 43h-26.311c-1.57 0-2.844 1.293-2.844 2.888v20.222c0 1.597 1.274 2.89 2.844 2.89h26.311c1.57 0 2.844-1.293 2.844-2.89v-20.222c0-1.595-1.274-2.888-2.844-2.888zm-26.311 2.888h26.311v20.164h-26.311v-20.164zm16.113 12.597l4.325-4.391v2.874h2.096v-6.563h-6.406v2.13h2.685l-4.28 4.346 1.58 1.603zm-5.93 1.656h-2.683l4.278-4.347-1.58-1.604-4.325 4.393v-2.874h-2.096v6.563h6.406v-2.13zm0 0" fill="#67737B" sketch:type="MSShapeGroup"/><path d="M29.156 3h-26.311c-1.57 0-2.844 1.293-2.844 2.888v20.222c0 1.597 1.274 2.89 2.844 2.89h26.311c1.57 0 2.844-1.293 2.844-2.89v-20.222c0-1.595-1.274-2.888-2.844-2.888zm-26.311 2.888h26.311v20.164h-26.311v-20.164zm16.113 12.597l4.325-4.391v2.874h2.096v-6.563h-6.406v2.13h2.685l-4.28 4.346 1.58 1.603zm-5.93 1.656h-2.683l4.278-4.347-1.58-1.604-4.325 4.393v-2.874h-2.096v6.563h6.406v-2.13zm0 0" fill="#3A434E" sketch:type="MSShapeGroup"/></g></svg>
